assets/white-logo.svg

<svg width="109" height="38" viewBox="0 0 109 38" fill="none" xmlns="http://www.w3.org/2000/svg">
<g clip-path="url(#clip0_440_245)">
<path d="M108.576 0H85.9271C85.8981 0 85.5027 0.397696 85.5027 0.42926V22.8581H101.358V30.2859H0V38H108.576C108.605 38 109 37.6023 109 37.5707V0.42926C109 0.399801 108.605 0 108.576 0ZM101.356 15.1419H94.5608V7.71405H101.356V15.1419Z" fill="white"/>
<path d="M39.0711 0.286175V15.144H20.3855V0.286175H12.7414V15.144H0V22.8581H78.4238V0.286175H39.0711ZM55.2081 15.1419H46.7152V7.71405H54.7836C54.8126 7.71405 55.2081 8.11175 55.2081 8.14331V15.144V15.1419ZM71.0614 15.1419H62.5685V7.71405H71.0614V15.1419Z" fill="white"/>
</g>
<defs>
<clipPath id="clip0_440_245">
<rect width="109" height="38" fill="white"/>
</clipPath>
</defs>
</svg>

<svg xmlns="http://www.w3.org/2000/svg" width="109" height="38" fill="none"><g fill="#fff" clip-path="url(#a)"><path d="M108.576 0H85.927c-.029 0-.424.398-.424.43v22.428h15.855v7.428H0V38h108.576c.029 0 .424-.398.424-.43V.43c0-.03-.395-.43-.424-.43m-7.22 15.142h-6.795V7.714h6.795z"/><path d="M39.071.286v14.858H20.386V.286H12.74v14.858H0v7.714h78.424V.286zm16.137 14.856h-8.493V7.714h8.069c.029 0 .424.398.424.43v7zm15.853 0h-8.493V7.714h8.493z"/></g><defs><clipPath id="a"><path fill="#fff" d="M0 0h109v38H0z"/></clipPath></defs></svg>
